pkgs/tbo/tags/tbo-0.98~git20100623+2295523-0ubuntu1guada1/data/doodle/accesories/devices/input-mouse.svg

<?xml version="1.0" encoding="UTF-8" standalone="no"?>
<!-- Created with Inkscape (http://www.inkscape.org/) -->

<svg
   xmlns:svg="http://www.w3.org/2000/svg"
   xmlns="http://www.w3.org/2000/svg"
   xmlns:xlink="http://www.w3.org/1999/xlink"
   version="1.1"
   width="48"
   height="48"
   id="svg4654">
  <defs
     id="defs3">
    <linearGradient
       id="linearGradient12270">
      <stop
         id="stop12272"
         style="stop-color:#acacac;stop-opacity:1"
         offset="0" />
      <stop
         id="stop12274"
         style="stop-color:#8d8d8d;stop-opacity:0"
         offset="1" />
    </linearGradient>
    <linearGradient
       id="linearGradient11950">
      <stop
         id="stop11952"
         style="stop-color:#ffffff;stop-opacity:1"
         offset="0" />
      <stop
         id="stop11954"
         style="stop-color:#a9a9a9;stop-opacity:1"
         offset="1" />
    </linearGradient>
    <linearGradient
       id="linearGradient11937">
      <stop
         id="stop11939"
         style="stop-color:#fd6c05;stop-opacity:1"
         offset="0" />
      <stop
         id="stop11941"
         style="stop-color:#b41111;stop-opacity:1"
         offset="1" />
    </linearGradient>
    <linearGradient
       id="linearGradient11635">
      <stop
         id="stop11637"
         style="stop-color:#ffffff;stop-opacity:1"
         offset="0" />
      <stop
         id="stop11639"
         style="stop-color:#ffffff;stop-opacity:0"
         offset="1" />
    </linearGradient>
    <linearGradient
       id="linearGradient11621">
      <stop
         id="stop11623"
         style="stop-color:#b1b1b1;stop-opacity:1"
         offset="0" />
      <stop
         id="stop11629"
         style="stop-color:#dfdfdf;stop-opacity:1"
         offset="0.2" />
      <stop
         id="stop11625"
         style="stop-color:#565656;stop-opacity:1"
         offset="1" />
    </linearGradient>
    <linearGradient
       id="linearGradient11607">
      <stop
         id="stop11609"
         style="stop-color:#000000;stop-opacity:1"
         offset="0" />
      <stop
         id="stop11611"
         style="stop-color:#000000;stop-opacity:0"
         offset="1" />
    </linearGradient>
    <linearGradient
       id="linearGradient11597">
      <stop
         id="stop11599"
         style="stop-color:#ffffff;stop-opacity:1"
         offset="0" />
      <stop
         id="stop11643"
         style="stop-color:#d9d9d9;stop-opacity:1"
         offset="0.37333333" />
      <stop
         id="stop11964"
         style="stop-color:#c5c5c5;stop-opacity:1"
         offset="0.60311109" />
      <stop
         id="stop11601"
         style="stop-color:#909090;stop-opacity:1"
         offset="1" />
    </linearGradient>
    <radialGradient
       cx="24.344677"
       cy="32.342636"
       r="22.829447"
       fx="24.344677"
       fy="32.342636"
       id="radialGradient11613"
       xlink:href="#linearGradient11607"
       gradientUnits="userSpaceOnUse"
       gradientTransform="matrix(1,0,0,0.619469,0,12.30737)" />
    <linearGradient
       x1="23.991123"
       y1="6.583746"
       x2="23.991123"
       y2="15.069027"
       id="linearGradient11627"
       xlink:href="#linearGradient11621"
       gradientUnits="userSpaceOnUse" />
    <linearGradient
       x1="10.807498"
       y1="2.4829133"
       x2="16.002489"
       y2="56.399807"
       id="linearGradient11641"
       xlink:href="#linearGradient11635"
       gradientUnits="userSpaceOnUse"
       gradientTransform="matrix(0.771415,0,0,1,5.848417,1)" />
    <radialGradient
       cx="25.754154"
       cy="46.026909"
       r="6.4192042"
       fx="25.754154"
       fy="46.026909"
       id="radialGradient11943"
       xlink:href="#linearGradient11937"
       gradientUnits="userSpaceOnUse"
       gradientTransform="matrix(0.840529,0,0,0.367351,4.170553,27.37887)" />
    <linearGradient
       x1="23.991123"
       y1="12.830256"
       x2="23.991123"
       y2="7.1877394"
       id="linearGradient11958"
       xlink:href="#linearGradient11950"
       gradientUnits="userSpaceOnUse" />
    <radialGradient
       cx="20.588579"
       cy="14.245288"
       r="13.261548"
       fx="20.588579"
       fy="14.245288"
       id="radialGradient12258"
       xlink:href="#linearGradient11597"
       gradientUnits="userSpaceOnUse"
       gradientTransform="matrix(1.866374,0,0,2.305134,-16.99169,-19.0131)" />
    <linearGradient
       x1="35.743351"
       y1="4.375"
       x2="36.543125"
       y2="-1"
       id="linearGradient12278"
       xlink:href="#linearGradient12270"
       gradientUnits="userSpaceOnUse"
       gradientTransform="matrix(0.840529,0,0,1,4.170553,0)" />
  </defs>
  <g
     id="layer1">
    <path
       d="m 47.174124,32.342636 a 22.829447,14.142136 0 1 1 -45.6588938,0 22.829447,14.142136 0 1 1 45.6588938,0 z"
       transform="matrix(0.684189,0,0,1.241071,7.976598,-9.19101)"
       id="path11605"
       style="color:#000000;fill:url(#radialGradient11613);fill-opacity:1;fill-rule:evenodd;stroke:none;stroke-width:1;marker:none;visibility:visible;display:inline;overflow:visible" />
    <path
       d="M 23.922984,10.5 C 20.560868,3 22.031794,1.75 28.966158,3.75 35.754648,5.7079269 43.465284,14 42.834887,5.25 42.167034,-4.0199067 33.378936,-8.7500001 33.378936,-8.7500001"
       id="path12260"
       style="fill:none;stroke:url(#linearGradient12278);stroke-width:1.00000036;stroke-linecap:butt;stroke-linejoin:miter;stroke-miterlimit:4;stroke-opacity:1;stroke-dasharray:none" />
    <path
       d="M 9.9398834,27.131191 C 7.483519,38.037747 14.640836,45.541488 25.387143,45.541488 c 10.630001,0 15.914895,-8.690604 13.725835,-18.410297 l -3.48962,-13.014568 c -0.407121,-1.82299 -1.276546,-2.405887 -1.861129,-2.604272 -5.722916,-2.5695253 -13.785474,-2.6933702 -18.820559,0 -0.639764,0.347238 -1.105047,0.347236 -1.570329,2.083419 L 9.9398834,27.131191 z"
       id="path11595"
       style="fill:url(#radialGradient12258);fill-opacity:1;fill-rule:evenodd;stroke:#4f4f4f;stroke-width:1.00000072;stroke-linecap:butt;stroke-linejoin:miter;stroke-miterlimit:4;stroke-opacity:1;stroke-dasharray:none" />
    <g
       transform="matrix(0.840529,0,0,1,4.170553,1)"
       id="g11960">
      <path
         d="M 8.5736698,22.948218 C 16.805824,17.644917 29.854661,17.038826 38.524694,22.342126 30.832368,18.464709 17.818978,17.99819 8.5736698,22.948218 z"
         id="path11948"
         style="fill:#ffffff;fill-opacity:0.79661016;fill-rule:evenodd;stroke:none" />
      <path
         d="M 8.7504465,22.72725 C 17.380348,16.495871 30.031438,16.42011 38.436306,22.25374 30.655591,17.580828 17.686395,17.291086 8.7504465,22.72725 z"
         id="path11615"
         style="fill:#000000;fill-opacity:0.25988704;fill-rule:evenodd;stroke:none" />
    </g>
    <path
       d="m 26.162951,11.331463 a 2.171828,4.7477169 0 1 1 -4.343656,0 2.171828,4.7477169 0 1 1 4.343656,0 z"
       transform="matrix(1.666343,0,0,1.417807,-15.70639,0.347873)"
       id="path11617"
       style="color:#000000;fill:url(#linearGradient11958);fill-opacity:1;fill-rule:evenodd;stroke:none;stroke-width:1.0000006;marker:none;visibility:visible;display:inline;overflow:visible;font-family:Bitstream Vera Sans" />
    <path
       d="m 10.487085,28.908148 c -1.4079642,8.460412 4.638057,15.666219 14.971935,15.666219 10.333821,0 14.288712,-8.697906 13.113991,-15.666219 L 34.847875,14.950287 c -0.309102,-2.195907 -1.219603,-2.407722 -1.758836,-2.619308 -5.85152,-2.296032 -12.674138,-2.4854501 -17.441372,0 -0.597406,0.311464 -1.092251,0.193088 -1.455254,1.77725 l -3.705328,14.799919 z"
       id="path11633"
       style="fill:none;stroke:url(#linearGradient11641);stroke-width:1.00000024;stroke-linecap:butt;stroke-linejoin:miter;stroke-miterlimit:4;stroke-opacity:1;stroke-dasharray:none" />
    <path
       d="m 26.162951,11.331463 a 2.171828,4.7477169 0 1 1 -4.343656,0 2.171828,4.7477169 0 1 1 4.343656,0 z"
       transform="matrix(0.840529,0,0,1,4.085647,2.742517)"
       id="path11619"
       style="color:#000000;fill:url(#linearGradient11627);fill-opacity:1;fill-rule:evenodd;stroke:#595959;stroke-width:0.5453732;stroke-linecap:butt;stroke-linejoin:miter;stroke-miterlimit:4;stroke-opacity:1;stroke-dasharray:none;stroke-dashoffset:0;marker:none;visibility:visible;display:inline;overflow:visible;font-family:Bitstream Vera Sans" />
    <path
       d="m 26.162951,11.331463 a 2.171828,4.7477169 0 1 1 -4.343656,0 2.171828,4.7477169 0 1 1 4.343656,0 z"
       transform="matrix(0.234565,0,0,0.542553,17.98658,6.360322)"
       id="path11631"
       style="color:#000000;fill:#ffffff;fill-opacity:0.33333333;fill-rule:evenodd;stroke:none;stroke-width:1.0000006;marker:none;visibility:visible;display:inline;overflow:visible;font-family:Bitstream Vera Sans" />
  </g>
</svg>

<?xml version="1.0" encoding="UTF-8" standalone="no"?>
<!-- Created with Inkscape (http://www.inkscape.org/) -->
<svg
   xmlns:dc="http://purl.org/dc/elements/1.1/"
   xmlns:cc="http://creativecommons.org/ns#"
   xmlns:rdf="http://www.w3.org/1999/02/22-rdf-syntax-ns#"
   xmlns:svg="http://www.w3.org/2000/svg"
   xmlns="http://www.w3.org/2000/svg"
   xmlns:xlink="http://www.w3.org/1999/xlink"
   xmlns:sodipodi="http://sodipodi.sourceforge.net/DTD/sodipodi-0.dtd"
   xmlns:inkscape="http://www.inkscape.org/namespaces/inkscape"
   sodipodi:docname="input-mouse.svg"
   sodipodi:docbase="/home/jimmac/src/cvs/tango-icon-theme/scalable/devices"
   inkscape:version="0.46"
   sodipodi:version="0.32"
   id="svg4654"
   height="48px"
   width="48px"
   inkscape:output_extension="org.inkscape.output.svg.inkscape">
  <defs
     id="defs3">
    <inkscape:perspective
       sodipodi:type="inkscape:persp3d"
       inkscape:vp_x="0 : 24 : 1"
       inkscape:vp_y="0 : 1000 : 0"
       inkscape:vp_z="48 : 24 : 1"
       inkscape:persp3d-origin="24 : 16 : 1"
       id="perspective48" />
    <linearGradient
       id="linearGradient12270">
      <stop
         id="stop12272"
         offset="0.0000000"
         style="stop-color:#acacac;stop-opacity:1.0000000;" />
      <stop
         id="stop12274"
         offset="1.0000000"
         style="stop-color:#8d8d8d;stop-opacity:0.0000000;" />
    </linearGradient>
    <linearGradient
       id="linearGradient11950">
      <stop
         id="stop11952"
         offset="0.0000000"
         style="stop-color:#ffffff;stop-opacity:1.0000000;" />
      <stop
         id="stop11954"
         offset="1.0000000"
         style="stop-color:#a9a9a9;stop-opacity:1.0000000;" />
    </linearGradient>
    <linearGradient
       id="linearGradient11937">
      <stop
         id="stop11939"
         offset="0.0000000"
         style="stop-color:#fd6c05;stop-opacity:1.0000000;" />
      <stop
         id="stop11941"
         offset="1.0000000"
         style="stop-color:#b41111;stop-opacity:1.0000000;" />
    </linearGradient>
    <linearGradient
       id="linearGradient11635"
       inkscape:collect="always">
      <stop
         id="stop11637"
         offset="0"
         style="stop-color:#ffffff;stop-opacity:1;" />
      <stop
         id="stop11639"
         offset="1"
         style="stop-color:#ffffff;stop-opacity:0;" />
    </linearGradient>
    <linearGradient
       id="linearGradient11621">
      <stop
         id="stop11623"
         offset="0.0000000"
         style="stop-color:#b1b1b1;stop-opacity:1.0000000;" />
      <stop
         style="stop-color:#dfdfdf;stop-opacity:1.0000000;"
         offset="0.20000000"
         id="stop11629" />
      <stop
         id="stop11625"
         offset="1.0000000"
         style="stop-color:#565656;stop-opacity:1.0000000;" />
    </linearGradient>
    <linearGradient
       id="linearGradient11607"
       inkscape:collect="always">
      <stop
         id="stop11609"
         offset="0"
         style="stop-color:#000000;stop-opacity:1;" />
      <stop
         id="stop11611"
         offset="1"
         style="stop-color:#000000;stop-opacity:0;" />
    </linearGradient>
    <linearGradient
       id="linearGradient11597">
      <stop
         id="stop11599"
         offset="0.0000000"
         style="stop-color:#ffffff;stop-opacity:1.0000000;" />
      <stop
         style="stop-color:#d9d9d9;stop-opacity:1.0000000;"
         offset="0.37333333"
         id="stop11643" />
      <stop
         id="stop11964"
         offset="0.60311109"
         style="stop-color:#c5c5c5;stop-opacity:1.0000000;" />
      <stop
         id="stop11601"
         offset="1.0000000"
         style="stop-color:#909090;stop-opacity:1.0000000;" />
    </linearGradient>
    <radialGradient
       gradientUnits="userSpaceOnUse"
       gradientTransform="matrix(1,0,0,0.619469,2.818492e-15,12.30737)"
       r="22.829447"
       fy="32.342636"
       fx="24.344677"
       cy="32.342636"
       cx="24.344677"
       id="radialGradient11613"
       xlink:href="#linearGradient11607"
       inkscape:collect="always" />
    <linearGradient
       gradientUnits="userSpaceOnUse"
       y2="15.069027"
       x2="23.991123"
       y1="6.5837460"
       x1="23.991123"
       id="linearGradient11627"
       xlink:href="#linearGradient11621"
       inkscape:collect="always" />
    <linearGradient
       gradientTransform="matrix(0.771415,0,0,1,5.848417,1)"
       gradientUnits="userSpaceOnUse"
       y2="56.399807"
       x2="16.002489"
       y1="2.4829133"
       x1="10.807498"
       id="linearGradient11641"
       xlink:href="#linearGradient11635"
       inkscape:collect="always" />
    <radialGradient
       gradientUnits="userSpaceOnUse"
       gradientTransform="matrix(0.840529,0,0,0.367351,4.170553,27.37887)"
       r="6.4192040"
       fy="46.026909"
       fx="25.754154"
       cy="46.026909"
       cx="25.754154"
       id="radialGradient11943"
       xlink:href="#linearGradient11937"
       inkscape:collect="always" />
    <linearGradient
       gradientUnits="userSpaceOnUse"
       y2="7.1877394"
       x2="23.991123"
       y1="12.830256"
       x1="23.991123"
       id="linearGradient11958"
       xlink:href="#linearGradient11950"
       inkscape:collect="always" />
    <radialGradient
       r="13.261548"
       fy="14.245288"
       fx="20.588579"
       cy="14.245288"
       cx="20.588579"
       gradientTransform="matrix(1.866374,-5.50505e-25,1.638067e-24,2.305134,-16.99169,-19.0131)"
       gradientUnits="userSpaceOnUse"
       id="radialGradient12258"
       xlink:href="#linearGradient11597"
       inkscape:collect="always" />
    <linearGradient
       gradientUnits="userSpaceOnUse"
       y2="-1.0000000"
       x2="36.543125"
       y1="4.3750000"
       x1="35.743351"
       id="linearGradient12278"
       xlink:href="#linearGradient12270"
       inkscape:collect="always"
       gradientTransform="matrix(0.840529,0,0,1,4.170553,0)" />
  </defs>
  <sodipodi:namedview
     inkscape:window-y="126"
     inkscape:window-x="292"
     inkscape:window-height="722"
     inkscape:window-width="944"
     inkscape:document-units="px"
     inkscape:grid-bbox="true"
     showgrid="false"
     inkscape:current-layer="layer1"
     inkscape:cy="14.148626"
     inkscape:cx="74.918298"
     inkscape:zoom="5.6568542"
     inkscape:pageshadow="2"
     inkscape:pageopacity="0.0"
     borderopacity="1.0"
     bordercolor="#666666"
     pagecolor="#ffffff"
     id="base"
     inkscape:showpageshadow="false" />
  <metadata
     id="metadata4">
    <rdf:RDF>
      <cc:Work
         rdf:about="">
        <dc:format>image/svg+xml</dc:format>
        <dc:type
           rdf:resource="http://purl.org/dc/dcmitype/StillImage" />
        <dc:title>Input - Mouse</dc:title>
        <dc:creator>
          <cc:Agent>
            <dc:title>Jakub Steiner</dc:title>
          </cc:Agent>
        </dc:creator>
        <dc:source>http://jimmac.musichall.cz</dc:source>
        <dc:subject>
          <rdf:Bag>
            <rdf:li>mouse</rdf:li>
            <rdf:li>input</rdf:li>
            <rdf:li>device</rdf:li>
            <rdf:li>HID</rdf:li>
            <rdf:li>pointer</rdf:li>
          </rdf:Bag>
        </dc:subject>
        <cc:license
           rdf:resource="http://creativecommons.org/licenses/publicdomain/" />
      </cc:Work>
      <cc:License
         rdf:about="http://creativecommons.org/licenses/publicdomain/">
        <cc:permits
           rdf:resource="http://creativecommons.org/ns#Reproduction" />
        <cc:permits
           rdf:resource="http://creativecommons.org/ns#Distribution" />
        <cc:permits
           rdf:resource="http://creativecommons.org/ns#DerivativeWorks" />
      </cc:License>
    </rdf:RDF>
  </metadata>
  <g
     inkscape:groupmode="layer"
     inkscape:label="Layer 1"
     id="layer1">
    <path
       transform="matrix(0.684189,0,0,1.241071,7.976598,-9.19101)"
       d="M 47.174124 32.342636 A 22.829447 14.142136 0 1 1  1.5152302,32.342636 A 22.829447 14.142136 0 1 1  47.174124 32.342636 z"
       sodipodi:ry="14.142136"
       sodipodi:rx="22.829447"
       sodipodi:cy="32.342636"
       sodipodi:cx="24.344677"
       id="path11605"
       style="opacity:1;color:#000000;fill:url(#radialGradient11613);fill-opacity:1;fill-rule:evenodd;stroke:none;stroke-width:1;stroke-linecap:butt;stroke-linejoin:miter;marker:none;marker-start:none;marker-mid:none;marker-end:none;stroke-miterlimit:4;stroke-dasharray:none;stroke-dashoffset:0;stroke-opacity:1;visibility:visible;display:inline;overflow:visible"
       sodipodi:type="arc"
       inkscape:r_cx="true"
       inkscape:r_cy="true" />
    <path
       sodipodi:nodetypes="czzc"
       id="path12260"
       d="M 23.922984,10.5 C 20.560868,3 22.031794,1.75 28.966158,3.75 C 35.754648,5.7079269 43.465284,14 42.834887,5.25 C 42.167034,-4.0199067 33.378936,-8.7500001 33.378936,-8.7500001"
       style="fill:none;fill-opacity:0.75;fill-rule:evenodd;stroke:url(#linearGradient12278);stroke-width:1.00000036;stroke-linecap:butt;stroke-linejoin:miter;stroke-miterlimit:4;stroke-dasharray:none;stroke-opacity:1"
       inkscape:r_cx="true"
       inkscape:r_cy="true" />
    <path
       sodipodi:nodetypes="cccccccc"
       id="path11595"
       d="M 9.9398834,27.131191 C 7.483519,38.037747 14.640836,45.541488 25.387143,45.541488 C 36.017144,45.541488 41.302038,36.850884 39.112978,27.131191 L 35.623358,14.116623 C 35.216237,12.293633 34.346812,11.710736 33.762229,11.512351 C 28.039313,8.9428257 19.976755,8.8189808 14.94167,11.512351 C 14.301906,11.859589 13.836623,11.859587 13.371341,13.59577 L 9.9398834,27.131191 z "
       style="fill:url(#radialGradient12258);fill-opacity:1;fill-rule:evenodd;stroke:#4f4f4f;stroke-width:1.00000072;stroke-linecap:butt;stroke-linejoin:miter;stroke-miterlimit:4;stroke-dasharray:none;stroke-opacity:1"
       inkscape:r_cx="true"
       inkscape:r_cy="true" />
    <g
       transform="matrix(0.840529,0,0,1,4.170553,1)"
       id="g11960"
       inkscape:r_cx="true"
       inkscape:r_cy="true">
      <path
         sodipodi:nodetypes="ccc"
         id="path11948"
         d="M 8.5736698,22.948218 C 16.805824,17.644917 29.854661,17.038826 38.524694,22.342126 C 30.832368,18.464709 17.818978,17.99819 8.5736698,22.948218 z "
         style="fill:#ffffff;fill-opacity:0.79661016;fill-rule:evenodd;stroke:none;stroke-width:1px;stroke-linecap:butt;stroke-linejoin:miter;stroke-opacity:1"
         inkscape:r_cx="true"
         inkscape:r_cy="true" />
      <path
         style="fill:#000000;fill-opacity:0.25988704;fill-rule:evenodd;stroke:none;stroke-width:1px;stroke-linecap:butt;stroke-linejoin:miter;stroke-opacity:1"
         d="M 8.7504465,22.72725 C 17.380348,16.495871 30.031438,16.42011 38.436306,22.25374 C 30.655591,17.580828 17.686395,17.291086 8.7504465,22.72725 z "
         id="path11615"
         sodipodi:nodetypes="ccc"
         inkscape:r_cx="true"
         inkscape:r_cy="true" />
    </g>
    <path
       transform="matrix(1.666343,0,0,1.417807,-15.70639,0.347873)"
       d="M 26.162951 11.331463 A 2.171828 4.7477169 0 1 1  21.819295,11.331463 A 2.171828 4.7477169 0 1 1  26.162951 11.331463 z"
       sodipodi:ry="4.7477169"
       sodipodi:rx="2.171828"
       sodipodi:cy="11.331463"
       sodipodi:cx="23.991123"
       id="path11617"
       style="opacity:1;color:#000000;fill:url(#linearGradient11958);fill-opacity:1;fill-rule:evenodd;stroke:none;stroke-width:1.0000006;stroke-linecap:butt;stroke-linejoin:miter;marker:none;marker-start:none;marker-mid:none;marker-end:none;stroke-miterlimit:4;stroke-dasharray:none;stroke-dashoffset:0;stroke-opacity:1;visibility:visible;display:inline;overflow:visible;font-family:Bitstream Vera Sans"
       sodipodi:type="arc"
       inkscape:r_cx="true"
       inkscape:r_cy="true" />
    <path
       style="fill:none;fill-opacity:1;fill-rule:evenodd;stroke:url(#linearGradient11641);stroke-width:1.00000024;stroke-linecap:butt;stroke-linejoin:miter;stroke-miterlimit:4;stroke-dasharray:none;stroke-opacity:1"
       d="M 10.487085,28.908148 C 9.0791208,37.36856 15.125142,44.574367 25.45902,44.574367 C 35.792841,44.574367 39.747732,35.876461 38.573011,28.908148 L 34.847875,14.950287 C 34.538773,12.75438 33.628272,12.542565 33.089039,12.330979 C 27.237519,10.034947 20.414901,9.8455289 15.647667,12.330979 C 15.050261,12.642443 14.555416,12.524067 14.192413,14.108229 L 10.487085,28.908148 z "
       id="path11633"
       sodipodi:nodetypes="czccsscc"
       inkscape:r_cx="true"
       inkscape:r_cy="true" />
    <path
       sodipodi:type="arc"
       style="opacity:1;color:#000000;fill:url(#linearGradient11627);fill-opacity:1;fill-rule:evenodd;stroke:#595959;stroke-width:0.5453732;stroke-linecap:butt;stroke-linejoin:miter;marker:none;marker-start:none;marker-mid:none;marker-end:none;stroke-miterlimit:4;stroke-dasharray:none;stroke-dashoffset:0;stroke-opacity:1;visibility:visible;display:inline;overflow:visible;font-family:Bitstream Vera Sans"
       id="path11619"
       sodipodi:cx="23.991123"
       sodipodi:cy="11.331463"
       sodipodi:rx="2.171828"
       sodipodi:ry="4.7477169"
       d="M 26.162951 11.331463 A 2.171828 4.7477169 0 1 1  21.819295,11.331463 A 2.171828 4.7477169 0 1 1  26.162951 11.331463 z"
       transform="matrix(0.840529,0,0,1,4.085647,2.742517)"
       inkscape:r_cx="true"
       inkscape:r_cy="true" />
    <path
       transform="matrix(0.234565,0,0,0.542553,17.98658,6.360322)"
       d="M 26.162951 11.331463 A 2.171828 4.7477169 0 1 1  21.819295,11.331463 A 2.171828 4.7477169 0 1 1  26.162951 11.331463 z"
       sodipodi:ry="4.7477169"
       sodipodi:rx="2.171828"
       sodipodi:cy="11.331463"
       sodipodi:cx="23.991123"
       id="path11631"
       style="opacity:1;color:#000000;fill:#ffffff;fill-opacity:0.33333333;fill-rule:evenodd;stroke:none;stroke-width:1.0000006;stroke-linecap:butt;stroke-linejoin:miter;marker:none;marker-start:none;marker-mid:none;marker-end:none;stroke-miterlimit:4;stroke-dasharray:none;stroke-dashoffset:0;stroke-opacity:1;visibility:visible;display:inline;overflow:visible;font-family:Bitstream Vera Sans"
       sodipodi:type="arc"
       inkscape:r_cx="true"
       inkscape:r_cy="true" />
  </g>
</svg>
